assets/icons/globe_colored.svg

<svg fill="none" height="24" viewBox="0 0 24 24" width="24" xmlns="http://www.w3.org/2000/svg" xmlns:xlink="http://www.w3.org/1999/xlink"><clipPath id="a"><path d="m0 0h24v24h-24z"/></clipPath><mask id="b" height="24" maskUnits="userSpaceOnUse" width="24" x="0" y="0"><path d="m24 0h-24v24h24z" fill="#fff"/></mask><g clip-path="url(#a)"><g mask="url(#b)"><path d="m12 0c-2.37337 0-4.69345.703788-6.66684 2.02236-1.97339 1.31858-3.51146 3.19273-4.419709 5.38544-.90825157 2.19271-1.145891 4.6055-.682869 6.9333.463023 2.3278 1.605918 4.466 3.284148 6.1442s3.81642 2.8211 6.14419 3.2841c2.32778.463 4.74058.2254 6.93328-.6828 2.1927-.9083 4.0669-2.4464 5.3854-4.4198 1.3186-1.9733 2.0224-4.2934 2.0224-6.6668-.0034-3.18154-1.2688-6.23179-3.5185-8.48148s-5.3-3.51507892-8.4815-3.51852zm8.647 7h-3.221c-.721-1.67102-1.6704-3.23391-2.821-4.644 2.5465.69293 4.7173 2.36147 6.042 4.644zm-4.147 5c-.0082 1.0181-.1687 2.0293-.476 3h-8.04799c-.30735-.9707-.46779-1.9819-.476-3 .00821-1.0181.16865-2.02932.476-3h8.04799c.3073.97068.4678 1.9819.476 3zm-7.72199 5h6.44399c-.8488 1.6757-1.9338 3.2208-3.222 4.588-1.2886-1.3668-2.37375-2.912-3.22199-4.588zm0-10c.84876-1.67573 1.93379-3.22084 3.22199-4.588 1.2886 1.36677 2.3738 2.91196 3.222 4.588zm.622-4.644c-1.15234 1.40978-2.10342 2.9727-2.826 4.644h-3.221c1.32585-2.28357 3.49866-3.95225 6.047-4.644zm-6.939 6.644h3.439c-.25924.97914-.39364 1.9871-.4 3 .00636 1.0129.14076 2.0209.4 3h-3.439c-.61466-1.9528-.61466-4.0472 0-6zm.892 8h3.221c.72258 1.6713 1.67366 3.2342 2.826 4.644-2.54834-.6918-4.72115-2.3604-6.047-4.644zm11.25199 4.644c1.1506-1.4101 2.1-2.973 2.821-4.644h3.221c-1.3247 2.2825-3.4955 3.9511-6.042 4.644zm6.934-6.644h-3.439c.2592-.9791.3936-1.9871.4-3-.0064-1.0129-.1408-2.02086-.4-3h3.437c.6147 1.9528.6147 4.0472 0 6z" fill="#000"/></g></g></svg>

<svg width="24" height="24" viewBox="0 0 24 24" fill="none" xmlns="http://www.w3.org/2000/svg">
<g clip-path="url(#clip0_235_2231)">
<mask id="mask0_235_2231" style="mask-type:alpha" maskUnits="userSpaceOnUse" x="0" y="0" width="24" height="24">
<path d="M24 0H0V24H24V0Z" fill="white"/>
</mask>
<g mask="url(#mask0_235_2231)">
<path d="M12 0C9.62663 0 7.30655 0.703788 5.33316 2.02236C3.35977 3.34094 1.8217 5.21509 0.913451 7.4078C0.00519943 9.60051 -0.23244 12.0133 0.230582 14.3411C0.693605 16.6689 1.8365 18.8071 3.51473 20.4853C5.19296 22.1635 7.33115 23.3064 9.65892 23.7694C11.9867 24.2324 14.3995 23.9948 16.5922 23.0866C18.7849 22.1783 20.6591 20.6402 21.9776 18.6668C23.2962 16.6935 24 14.3734 24 12C23.9966 8.81846 22.7312 5.76821 20.4815 3.51852C18.2318 1.26883 15.1815 0.00344108 12 0ZM20.647 7H17.426C16.705 5.32898 15.7556 3.76609 14.605 2.356C17.1515 3.04893 19.3223 4.71747 20.647 7ZM16.5 12C16.4918 13.0181 16.3313 14.0293 16.024 15H7.97601C7.66866 14.0293 7.50822 13.0181 7.50001 12C7.50822 10.9819 7.66866 9.97068 7.97601 9H16.024C16.3313 9.97068 16.4918 10.9819 16.5 12ZM8.77801 17H15.222C14.3732 18.6757 13.2882 20.2208 12 21.588C10.7114 20.2212 9.62625 18.676 8.77801 17ZM8.77801 7C9.62677 5.32427 10.7118 3.77916 12 2.412C13.2886 3.77877 14.3738 5.32396 15.222 7H8.77801ZM9.40001 2.356C8.24767 3.76578 7.29659 5.3287 6.57401 7H3.35301C4.67886 4.71643 6.85167 3.04775 9.40001 2.356ZM2.46101 9H5.90001C5.64077 9.97914 5.50637 10.9871 5.50001 12C5.50637 13.0129 5.64077 14.0209 5.90001 15H2.46101C1.84635 13.0472 1.84635 10.9528 2.46101 9ZM3.35301 17H6.57401C7.29659 18.6713 8.24767 20.2342 9.40001 21.644C6.85167 20.9522 4.67886 19.2836 3.35301 17ZM14.605 21.644C15.7556 20.2339 16.705 18.671 17.426 17H20.647C19.3223 19.2825 17.1515 20.9511 14.605 21.644ZM21.539 15H18.1C18.3592 14.0209 18.4936 13.0129 18.5 12C18.4936 10.9871 18.3592 9.97914 18.1 9H21.537C22.1517 10.9528 22.1517 13.0472 21.537 15H21.539Z" fill="black"/>
</g>
</g>
<defs>
<clipPath id="clip0_235_2231">
<rect width="24" height="24" fill="white"/>
</clipPath>
</defs>
</svg>
